X: 1
T: The Bonny Light Horseman
R: waltz
M: 3/4
L: 1/8
K: Gmaj
(DE)||G2 G2 A2|"(4/4 BAR)" (GE) D4 (GB)|d2 (de) (dB)|d4(Bd)|
e2 (ed) (BA)|G2 E2 (GG)|(AB) (AG) E2|D4 (DE)|
G2 G2 A2|"(4/4 BAR)" (GE) D4 (GB)|d2 (de) (dB)|d4 Bd|
e2 (ed) (BA)|G2 E2 GG|(AB) (AG) E2|E4||

